X:45
T:Duke of York's March
N:page 26 on manuscript
M:C
L:1/8
K:F
F2 F>F A2 A>A | cAcA F2 c>c | fcfc fcAF | c2 c>c c2 z2 | (c'3 a) .f2 f2 | g2 g>b a2 z c' | c'3 a (af)ba |
g2 g>g g2 z2 :||: c2 c>c .c(gab) | c2 c>c .c(fac') | (bg)gg (af)ff | d'c'ba (a2 g2) | f3 (a/g/) fcd_e | (_ed) d4 (=efga) |
bbaa ggff | e2 g>g g2 z2 | F2 F>F A2 A>A | cAcA F2 b2 | ac'c'a bgfe | f2 f>f f2 z2 H:|
M:C
K:C
|:c3 e dcdc | c2 e2 c2 e2 | e3 g fefd | e2 g2 e2 g2 | g3 c' c'3 g | a2 b c'2 ba | g2 c'g (gf)(fe) | (e4 d2) z2 :||: d3 e fefd |
e2 g2 c'2 e'2 | d3 e fefd | e2 c>c c2 z2 | a3 b c'2 ba | g3 c' c'3 e' | d'2 c'2 d'2 b2 | c'2 c'>c' c'2 z2 +D.C.+:|

